X: 600
%
U:~=!turn!
T: Taighean Geala Sheildaig
T: The White Houses of Sheildaig
C:Pipe tune
O:Scotland
B:Keith Norman MacDonald : "The Skye collection of the best reels & strathspeys extant" : 1887
Z:Ralph Palmer
R:Reel
M:C
L:1/8
K:A dorian
g | (fe) d2 eAA>B | d<edB B2 Gg | (fe) d2 e<A AB | d<edB AAA :|
B | d2 eA A<AeA | fAed B2 GB | d2 eA A<A ef | gedB AAA |]


